X: 41382
T: Twas In The Month Of January
R: jig
M: 6/8
K: Dmajor
A|:"A"e2 d e2 A|edc dcA|"G"F2G A2B|"A"A3 Aef|
"G"gfg e2 f|"A"gfe a2f|e2 A cBA|"D"d3 def|
"G"gfg e2 f|"A"gfe a2 f|e2 A cBc|"D"d3 dcd|
"A"e2 ce2 c|"D"dcA cAG|"G"F2G A2B|"A"A3 A3:|

